src/assets/images/landing/6-rating.svg

<svg width="92" height="18" viewBox="0 0 92 18" fill="none" xmlns="http://www.w3.org/2000/svg">
<path d="M78.8218 11.0979L76.0237 16.3653C75.9287 16.5442 76.1293 16.7348 76.3031 16.6307L82.0216 13.2055C82.09 13.1645 82.1763 13.1681 82.2411 13.2146L86.9516 16.6004C87.1139 16.7171 87.3281 16.5497 87.2541 16.364L85.1522 11.0883C85.116 10.9975 85.1507 10.8939 85.2342 10.8432L90.3886 7.71581C90.5615 7.61086 90.4872 7.34483 90.2848 7.34483H84.6901C84.6071 7.34483 84.5327 7.29359 84.5032 7.21605L82.2951 1.42177C82.2333 1.25964 82.0085 1.24771 81.9299 1.4024L78.966 7.23543C78.9319 7.30255 78.863 7.34483 78.7877 7.34483H73.7152C73.5128 7.34483 73.4385 7.61086 73.6114 7.71581L78.749 10.833C78.8396 10.888 78.8716 11.0042 78.8218 11.0979Z" fill="#81EC40" stroke="#81EC40" stroke-width="2"/>
<path d="M60.8218 11.0979L58.0237 16.3653C57.9287 16.5442 58.1293 16.7348 58.3031 16.6307L64.0216 13.2055C64.09 13.1645 64.1763 13.1681 64.2411 13.2146L68.9516 16.6004C69.1139 16.7171 69.3281 16.5497 69.2541 16.364L67.1522 11.0883C67.116 10.9975 67.1507 10.8939 67.2342 10.8432L72.3886 7.71581C72.5615 7.61086 72.4872 7.34483 72.2848 7.34483H66.6901C66.6071 7.34483 66.5327 7.29359 66.5032 7.21605L64.2951 1.42177C64.2333 1.25964 64.0085 1.24771 63.9299 1.4024L60.966 7.23543C60.9319 7.30255 60.863 7.34483 60.7877 7.34483H55.7152C55.5128 7.34483 55.4385 7.61086 55.6114 7.71581L60.749 10.833C60.8396 10.888 60.8716 11.0042 60.8218 11.0979Z" fill="#81EC40" stroke="#81EC40" stroke-width="2"/>
<path d="M42.8218 11.0979L40.0237 16.3653C39.9287 16.5442 40.1293 16.7348 40.3031 16.6307L46.0216 13.2055C46.09 13.1645 46.1763 13.1681 46.2411 13.2146L50.9516 16.6004C51.1139 16.7171 51.3281 16.5497 51.2541 16.364L49.1522 11.0883C49.116 10.9975 49.1507 10.8939 49.2342 10.8432L54.3886 7.71581C54.5615 7.61086 54.4872 7.34483 54.2848 7.34483H48.6901C48.6071 7.34483 48.5327 7.29359 48.5032 7.21605L46.2951 1.42177C46.2333 1.25964 46.0085 1.24771 45.9299 1.4024L42.966 7.23543C42.9319 7.30255 42.863 7.34483 42.7877 7.34483H37.7152C37.5128 7.34483 37.4385 7.61086 37.6114 7.71581L42.749 10.833C42.8396 10.888 42.8716 11.0042 42.8218 11.0979Z" fill="#81EC40" stroke="#81EC40" stroke-width="2"/>
<path d="M24.8218 11.0979L22.0237 16.3653C21.9287 16.5442 22.1293 16.7348 22.3031 16.6307L28.0216 13.2055C28.09 13.1645 28.1763 13.1681 28.2411 13.2146L32.9516 16.6004C33.1139 16.7171 33.3281 16.5497 33.2541 16.364L31.1522 11.0883C31.116 10.9975 31.1507 10.8939 31.2342 10.8432L36.3886 7.71581C36.5615 7.61086 36.4872 7.34483 36.2848 7.34483H30.6901C30.6071 7.34483 30.5327 7.29359 30.5032 7.21605L28.2951 1.42177C28.2333 1.25964 28.0085 1.24771 27.9299 1.4024L24.966 7.23543C24.9319 7.30255 24.863 7.34483 24.7877 7.34483H19.7152C19.5128 7.34483 19.4385 7.61086 19.6114 7.71581L24.749 10.833C24.8396 10.888 24.8716 11.0042 24.8218 11.0979Z" fill="#81EC40" stroke="#81EC40" stroke-width="2"/>
<path d="M6.82183 11.0979L4.02373 16.3653C3.92869 16.5442 4.12933 16.7348 4.30312 16.6307L10.0216 13.2055C10.09 13.1645 10.1763 13.1681 10.2411 13.2146L14.9516 16.6004C15.1139 16.7171 15.3281 16.5497 15.2541 16.364L13.1522 11.0883C13.116 10.9975 13.1507 10.8939 13.2342 10.8432L18.3886 7.71581C18.5615 7.61086 18.4872 7.34483 18.2848 7.34483H12.6901C12.6071 7.34483 12.5327 7.29359 12.5032 7.21605L10.2951 1.42177C10.2333 1.25964 10.0085 1.24771 9.92987 1.4024L6.96604 7.23543C6.93193 7.30255 6.86302 7.34483 6.78773 7.34483H1.71517C1.51285 7.34483 1.43845 7.61086 1.61142 7.71581L6.74895 10.833C6.8396 10.888 6.87157 11.0042 6.82183 11.0979Z" fill="#81EC40" stroke="#81EC40" stroke-width="2"/>
</svg>

<svg width="92" height="18" fill="none" xmlns="http://www.w3.org/2000/svg"><path d="M78.822 11.098l-2.798 5.267a.2.2 0 00.28.266l5.718-3.425a.2.2 0 01.22.009l4.71 3.385c.162.117.376-.05.302-.236l-2.102-5.276a.2.2 0 01.082-.245l5.155-3.127c.172-.105.098-.371-.104-.371H84.69a.2.2 0 01-.187-.129l-2.208-5.794a.2.2 0 00-.365-.02l-2.964 5.833a.2.2 0 01-.178.11h-5.073c-.202 0-.276.266-.104.37l5.138 3.118a.2.2 0 01.073.265zm-18 0l-2.798 5.267a.2.2 0 00.28.266l5.718-3.425a.2.2 0 01.22.009l4.71 3.385c.162.117.376-.05.302-.236l-2.102-5.276a.2.2 0 01.082-.245l5.155-3.127c.172-.105.098-.371-.104-.371H66.69a.2.2 0 01-.187-.129l-2.208-5.794a.2.2 0 00-.365-.02l-2.964 5.833a.2.2 0 01-.178.11h-5.073c-.202 0-.277.266-.104.37l5.138 3.118a.2.2 0 01.073.265zm-18 0l-2.798 5.267a.2.2 0 00.28.266l5.718-3.425a.2.2 0 01.22.009l4.71 3.385c.162.117.376-.05.302-.236l-2.102-5.276a.2.2 0 01.082-.245l5.155-3.127c.172-.105.098-.371-.104-.371H48.69a.2.2 0 01-.187-.129l-2.208-5.794a.2.2 0 00-.365-.02l-2.964 5.833a.2.2 0 01-.178.11h-5.073c-.202 0-.277.266-.104.37l5.138 3.118a.2.2 0 01.073.265zm-18 0l-2.798 5.267a.2.2 0 00.28.266l5.718-3.425a.2.2 0 01.22.009l4.71 3.385c.162.117.376-.05.302-.236l-2.102-5.276a.2.2 0 01.082-.245l5.155-3.127c.172-.105.098-.371-.104-.371H30.69a.2.2 0 01-.187-.129l-2.208-5.794a.2.2 0 00-.365-.02l-2.964 5.833a.2.2 0 01-.178.11h-5.073c-.202 0-.276.266-.104.37l5.138 3.118a.2.2 0 01.073.265zm-18 0l-2.798 5.267a.2.2 0 00.28.266l5.718-3.425a.2.2 0 01.22.009l4.71 3.385c.162.117.376-.05.302-.236l-2.102-5.276a.2.2 0 01.082-.245l5.155-3.127c.172-.105.098-.371-.104-.371H12.69a.2.2 0 01-.187-.129l-2.208-5.794a.2.2 0 00-.365-.02L6.966 7.235a.2.2 0 01-.178.11H1.715c-.202 0-.277.266-.104.37l5.138 3.118a.2.2 0 01.073.265z" fill="#81EC40" stroke="#81EC40" stroke-width="2"/></svg>
